X:1
T:Madonna, per voi ardo
T:Girolamo Scotto
T:Source : Madrigali a tre voci---Venetia---G.Scotto---1541. Editor : André Vierendeels (17/07/16).
T:Notes : Original clefs : C3, C4, F4 Editorial accidentals above the staff Original note values have been halved "Primi toni"
T:Madonna, per voi ardo
T:©
T:©
T:©
T:©
T:©
C:Girolamo Scotto
Z:©
%%score [ 1 2 3 ]
L:1/8
Q:1/4=105
M:2/2
K:F
V:1 treble-8 nm="Tenor 1" snm="T 1"
V:2 treble-8 nm="Tenor 2" snm="T 2"
V:3 bass nm="Bass" snm="B"
V:1
 d8 | f8 | e8 | z8 | d6 d2 | e4 f4 | z2 d2 A2 A2 | B2 B2 G2 c2- | cB A3 G G2- | G2 F2 G2 d2 | %10
w: Ma-|don-|na,||per voi|ar- do,|et voi non|mel cre- de- *||* * te, per-|
 d2 d2 f2 f2 | e2 e2 f2 _e2- | ed d4 c2 | d6 c2 | B2 G2 A2 d2 | d2 d2 c2 c2 | c4 d2 f2 | e4 d2 f2 | %18
w: che non pia nquan-|to bel- la se-||te, bel-|la se- te, ogn'|ho- ra mi- ro'et|guar- do et|guar- do, se|
 f2 f2 c3 d | _e4 d2 Bc | de f4 e2 | f2 d3 c/B/ c2 | d4 z2 d2- | d2 f4 e2 | d2 c4 B2 | c2 G2 B3 B | %26
w: tan- ta cru- *|* del- * *|* * ta can-|giar vo- le- * *|te, don-|* na non|v'ac- cor- ge-|te, che per voi|
 A2 B2 A3 B | c2 d3 e f2 | d3 c/B/ A4 | z2 f2 f2 f2 | e2 f2 f3 f | e2 d4 c2 | dcBA GABc | %33
w: mo- ro'et ar- *||* * * do,|et per mi-|rar vo- stra bel-|ta'in- fi- *||
 de f4 e2 | f2 c2 d2 d2 | _e2 d4 c2 | d6 c2 | B2 G2 A2 d2- | d2 c2 dcBA | GABc de f2- | %40
w: * * ni- *|ta, et voi so-|la ser- vi-|re, bra-|mo la vi- *|||
 f2 e2 f2 c2 | d2 d2 _e2 d2- | d2 c2 d4- | d8- | d8 |] %45
w: |ta, bra- mo la|_ vi- ta.|_||
V:2
 z8 | z4 A4 | c4 G4- | G2 G2 A4 | B4 F2 F2 | c2 c2 B2 A2 | B2 G4 F2 | G2 D2 E2 E2 | F4 E4 | %9
w: |Ma|don- na|_ per voi|_ ar- do,|et voi non mel|cre- de- *|te, non mel cre-|de- te,|
 z4 z2 G2 | B2 B2 A3 B | c3 B A2 G2 | F4 E4 | D3 C DE F2- | F2 E2 F4- | F4 z2 G2 | A2 A2 B2 d2- | %17
w: per-|che non pia _|quan- * * to|bel- la|se- * * * *|* * te,|_ ogn'|ho- ra mi- ro|
 d2 c2 d3 c | B2 A3 GAB | c2 G2 G2 G2 | A3 B c2 G2 | A2 B2 G4 | A4 B4 | B4 G4 | F2 G2 A2 D2 | %25
w: _ et guar- *||do, se tan- ta|cru- del- ta can|giar vo- le-|te, don-|na non|v'ac- cor- ge- *|
 E3 F G4 | z2 D2 F3 F | E2 F2 G2 A2- |"^#" AG G4 F2 | G2 A2 A2 A2 | c2 d2 d2 D2 | E2 F2 E4 | %32
w: * * te,|che per voi|mo- ro'et ar- *||do, et per mi-|rar vo- stra'in- fi-|ni- * *|
 F4 z4 | z2 B2 G2 G2 | A2 A2 B3 A | G2 F2 E4 | D3 C DE F2- | F2 E2 F4 | E4 D4 | z4 z2 B2 | %40
w: ta,|et voi so-|la ser- vi- *|re- bra- mo|la vi- * * *||* ta,|et|
 G2 G2 A2 A2 | B3 A G2 F2 | E4 D4- | D8- | D8 |] %45
w: so- la ser- vi-|re le vi- *|* ta.|_||
V:3
 G,8 | D,8 | C,8 | _E,4 D,4 | G,,3 A,, B,,4 | z2 C,2 D,2 D,2 | G,,4 D,4 | G,,4 C,4 | F,,4 C,3 B,, | %9
w: Ma-|don-|na,|per voi|ar- * do,|et voi non|mel cre-|de- te,|no mel cre-|
 A,,4 G,,4- | G,,4 z2 D,2 | A,,2 A,,2 D,2 G,,2 | D,4 A,,4 | B,,6 A,,2 | G,,4 F,,2 B,,2 | %15
w: de- te,|_ per-|che non pia quan-|to bel-|ta _|se- te, ogn'|
 B,,2 B,,2 F,2 E,2 | F,4 B,,4 | z4 z2 D,2 | D,2 D,2 F,4 |"^b" C,4 G,,2 E,2 | D,4 C,4 | %21
w: ho- ra mi- ro'et|guar- do,|se|tan- ta cru-|del- ta can-|giar vo-|
 F,2 B,,2 _E,4 | D,4 B,,4 | B,,4 C,4 | D,2 _E,2 D,4 | C,4 z2 G,,2 | D,2 B,,2 D,3 D, | %27
w: le- * *|te, don-|na non|v'ac- cor- ge-|te, che|per voi mo- ro'et|
 C,2 B,,2 G,,2 F,,2 | G,,A,,B,,C, D,4 | G,,2 D,2 D,2 D,2 | C,2 B,,2 B,,3 B,, | C,2 D,2 A,,4 | %32
w: ar- * * *||do, et per mi-|rar vo- stra'in- fi-|ni- * *|
 D,4 _E,4 | D,2 B,,2 C,4 | F,,2 F,2 B,,2 B,,2 | C,2 D,2 A,,4 | B,,6 A,,2 | G,,4 F,,2 B,,2- | %38
w: |ta, et voi|so- la ser- vi-|* * re,|bra- mo|la vi- *|
 B,,2 A,,2 B,,4 | _E,4 D,2 B,,2 | C,4 F,,2 F,2 | B,,2 B,,2 C,2 D,2 | A,,2 A,,2 B,,2 B,,2 | %43
w: * * ta,|bra- mo la|vi- ta, et|voi so- la ser-|vir bra- mo la|
 G,,4 D,4- | D,8 |] %45
w: vi- ta.|_|

